projects/js-packages/social-logos/src/svg/dropbox.svg

<svg enable-background="new 0 0 24 24" viewBox="0 0 24 24" xmlns="http://www.w3.org/2000/svg"><path d="m12 6.134-5.931 3.663-4.069-3.257 5.883-3.843zm-10 6.92 5.883 3.843 4.117-3.438-5.931-3.662zm10 .405 4.116 3.439 5.884-3.844-4.069-3.257zm10-6.919-5.884-3.843-4.116 3.437 5.931 3.663zm-9.989 7.66-4.129 3.426-1.767-1.153v1.291l5.896 3.539 5.897-3.539v-1.291l-1.769 1.153z"/></svg>

<?xml version="1.0" encoding="iso-8859-1"?>
<!-- Generator: Adobe Illustrator 19.2.1, SVG Export Plug-In . SVG Version: 6.00 Build 0)  -->
<svg version="1.1" xmlns="http://www.w3.org/2000/svg" xmlns:xlink="http://www.w3.org/1999/xlink" x="0px" y="0px"
	 viewBox="0 0 24 24" style="enable-background:new 0 0 24 24;" xml:space="preserve">
<g id="dropbox">
	<path d="M12,6.134L6.069,9.797L2,6.54l5.883-3.843L12,6.134z M2,13.054l5.883,3.843L12,13.459L6.069,9.797L2,13.054z M12,13.459
		l4.116,3.439L22,13.054l-4.069-3.257L12,13.459z M22,6.54l-5.884-3.843L12,6.134l5.931,3.663L22,6.54z M12.011,14.2l-4.129,3.426
		l-1.767-1.153v1.291l5.896,3.539l5.897-3.539v-1.291l-1.769,1.153L12.011,14.2z"/>
</g>
<g id="Layer_1">
</g>
</svg>
